X:1
T:Title
%%score ( 1 2 ) ( 3 4 )
L:1/8
Q:1/4=104
M:4/4
K:Ab
V:1 treble nm="Grand Piano, Soprano"
V:2 treble 
V:3 bass nm="Choir Pad, Olvera Street, 87.87 D"
V:4 bass 
V:1
 [CE]2 [CE]2 [DF]>[_C=D] [=CE]2 | [EA]2 [DB]4 [DF]2 | z4 .G2 z2 | [Ed]>[Ed] [Ec]6 | %4
w: By~James~Holmes~Rosecrans,~1880 * * * *||||
 [CE]2 [CE]2 [DF]>[_C=D] [=CE]2 | [EA]2 [DB]4 [DF]2 | [Dd]2 [Ec]2 BA [Ec]2 | [Ec]>[DB] [CA]6 | %8
w: ||||
 [Ec]2 [Fc]2 [=Ec][Ec] [Fc]2 | cB [FA]4 [CA]2 | [CA]2 [=DB]2 BcBA | [=DG][DF] E6 | %12
w: ||||
 [DE]2 [CE]2 [DF]>[_C=D] [=CE]2 | [EA]2 [DB]4 [DF]2 | [Dd]2 [Ec]2 BA [Ec]2 | [Ec]>[DB] [CA]6- | %16
w: ||||
 [CA]2 z2 z4 |] %17
w: |
V:2
 x8 | x8 | [=DA]2 [EG]2 E-[EF] E2 | x8 | x8 | x8 | z4 F2 z2 | x8 | x8 | =E2 z2 z4 | z4 =D2 D2 | %11
 x8 | x8 | x8 | z4 F2 z2 | x8 | x8 |] %17
V:3
 [A,,A,]2 [A,,A,]2 [A,,A,]>[A,,A,] [A,,A,]2 | [C,A,]2 [D,F,]4 [D,A,]2 | %2
 [B,,B,]2 [E,B,]2 B,A, [E,G,]2 | [E,G,]>[E,G,] A,6 | [A,,A,]2 [A,,A,]2 [A,,A,]>[A,,A,] [A,,A,]2 | %5
 [C,A,]2 [D,F,]4 [D,A,]2 | [B,,B,]2 [C,A,]2 [D,A,]2 [E,A,]2 | [E,G,]>[E,G,] [A,,A,]6 | %8
 A,2 [F,A,]2 [C,G,][C,G,] [F,A,]2 | [C,G,]2 [F,A,]4 [F,A,]2 | F,2 [B,,F,]2 [B,,F,]2 [B,,F,]2 | %11
 [B,,B,][B,,A,] [E,G,]2 [D,B,]2 [C,A,]2 | [C,G,]2 [A,,A,]2 [A,,A,]>[A,,A,] [A,,A,]2 | %13
 [C,A,]2 [D,F,]4 [D,A,]2 | [B,,B,]2 [C,A,]2 [D,A,]2 [E,A,]2 | [E,G,]>[E,G,] [A,,A,]6- | %16
 [A,,A,]2 z2 z4 |] %17
V:4
 x8 | x8 | z4 E,2 z2 | x8 | x8 | x8 | x8 | x8 | x8 | x8 | x8 | x8 | x8 | x8 | x8 | x8 | x8 |] %17

